X:1
T:Common Bill
M:3/4
L:1/8
K:C
 EF| G2 c2 EE| E2 G2 CC| E2 F2 B,D| C3 z EF| G2 c2 EE| E2 G2 CC| D2 F2 B,D|\
 C3 z EE| D2 F2 B,D| C2 E2 EE| D2 F2 B,D| C3 z EF| G2 c2 EE| E2 G2 CC|\
 D2 F2 B,D| C3 z||
